src/main/resources/icons/DartIcons/icons/dartWeb.svg

<svg width="16" height="16" viewBox="0 0 16 16" fill="none" xmlns="http://www.w3.org/2000/svg">
<path opacity="0.9" fill-rule="evenodd" clip-rule="evenodd" d="M3.37922 10.2715L3.37322 3.3735L1.19122 7.9255C0.936223 8.4685 0.828223 9.1325 1.57322 9.8765L3.71122 12.0145C3.33222 11.6355 3.38422 11.0175 3.37922 10.2715" fill="#305699"/>
<path opacity="0.9" fill-rule="evenodd" clip-rule="evenodd" d="M10.2708 3.37891L3.37378 3.37291L7.92478 1.19091C8.46878 0.935908 9.13278 0.828909 9.87678 1.57291L12.0148 3.71091C11.6358 3.33191 11.0168 3.38391 10.2708 3.37891" fill="#7CC1FD"/>
<path opacity="0.9" fill-rule="evenodd" clip-rule="evenodd" d="M8.00001 12.5072L4.22198 12.5264L6.69598 15.0004H8.75805C8.28048 14.2871 8.00145 13.4297 8.00001 12.5072Z" fill="#7CC1FD"/>
<path opacity="0.9" fill-rule="evenodd" clip-rule="evenodd" d="M3.37347 3.3732L4.32547 4.3262L9.31766 9.31838C8.50353 10.1327 8 11.2575 8 12.5C8 12.5023 8 12.5047 8.00001 12.507L4.22147 12.5262L3.71147 12.0142C3.377 11.6806 3.3782 11.1593 3.37967 10.5287C3.37986 10.4447 3.38006 10.3588 3.37947 10.2712L3.37347 3.3732Z" fill="#70B4F4"/>
<path opacity="0.9" fill-rule="evenodd" clip-rule="evenodd" d="M12.0147 3.71071L12.5257 4.22271L15.0007 6.69671V8.75826C14.2855 8.27932 13.4254 8 12.5 8C11.2572 8 10.1321 8.5038 9.31772 9.31832L4.32672 4.32671L3.37372 3.37271L10.2717 3.37871C10.3594 3.3793 10.4452 3.3791 10.5291 3.3789C11.1596 3.37744 11.6802 3.37623 12.0147 3.71071Z" fill="#305699"/>
<path fill-rule="evenodd" clip-rule="evenodd" d="M12.5 9C10.568 9 9 10.568 9 12.5C9 14.432 10.568 16 12.5 16C14.432 16 16 14.432 16 12.5C16 10.568 14.432 9 12.5 9ZM12.15 15.2755C10.7675 15.104 9.69999 13.928 9.69999 12.5C9.69999 12.283 9.72799 12.0765 9.77349 11.8735L11.45 13.55V13.9C11.45 14.285 11.765 14.6 12.15 14.6V15.2755ZM14.565 14.3865C14.474 14.103 14.215 13.9 13.9 13.9H13.55V12.85C13.55 12.6575 13.3925 12.5 13.2 12.5H11.1V11.8H11.8C11.9925 11.8 12.15 11.6425 12.15 11.45V10.75H12.85C13.235 10.75 13.55 10.435 13.55 10.05V9.90651C14.5755 10.323 15.3 11.3275 15.3 12.5C15.3 13.228 15.02 13.8895 14.565 14.3865Z" fill="#9AA7B0" fill-opacity="0.8"/>
</svg>

<svg width="16" height="16" viewBox="0 0 16 16" fill="none" xmlns="http://www.w3.org/2000/svg"><rect id="frame" width="16" height="16" fill="none"/><path opacity=".9" fill-rule="evenodd" clip-rule="evenodd" d="M3.38 10.271l-.007-6.898-2.182 4.553c-.255.543-.363 1.207.382 1.95l2.138 2.139c-.379-.38-.327-.998-.332-1.744" fill="#305699"/><path opacity=".9" fill-rule="evenodd" clip-rule="evenodd" d="M10.27 3.379l-6.896-.006 4.55-2.182c.545-.255 1.209-.362 1.953.382l2.138 2.138c-.38-.38-.998-.327-1.744-.332" fill="#7CC1FD"/><path opacity=".9" fill-rule="evenodd" clip-rule="evenodd" d="M8 12.507l-3.778.02L6.696 15h2.062A4.479 4.479 0 0 1 8 12.507z" fill="#7CC1FD"/><path opacity=".9" fill-rule="evenodd" clip-rule="evenodd" d="M3.373 3.373l.952.953 4.993 4.992A4.486 4.486 0 0 0 8 12.507l-3.779.02-.51-.513c-.334-.333-.333-.855-.331-1.485v-.258l-.007-6.898z" fill="#70B4F4"/><path opacity=".9" fill-rule="evenodd" clip-rule="evenodd" d="M12.015 3.71l.51.513 2.476 2.474v2.061A4.479 4.479 0 0 0 12.5 8a4.486 4.486 0 0 0-3.182 1.318L4.327 4.327l-.953-.954 6.898.006h.257c.63-.002 1.151-.003 1.486.332z" fill="#305699"/><path fill-rule="evenodd" clip-rule="evenodd" d="M12.5 9A3.501 3.501 0 0 0 9 12.5c0 1.932 1.568 3.5 3.5 3.5s3.5-1.568 3.5-3.5S14.432 9 12.5 9zm-.35 6.275a2.796 2.796 0 0 1-2.377-3.402l1.677 1.677v.35c0 .385.315.7.7.7v.675zm2.415-.889a.694.694 0 0 0-.665-.486h-.35v-1.05a.351.351 0 0 0-.35-.35h-2.1v-.7h.7c.192 0 .35-.158.35-.35v-.7h.7c.385 0 .7-.315.7-.7v-.143A2.802 2.802 0 0 1 15.3 12.5c0 .728-.28 1.39-.735 1.886z" fill="#9AA7B0" fill-opacity=".8"/></svg>
